X:436
T: WO MOECHT ICH SEIN
N: F0812
O: Europa, Mitteleuropa, Deutschland
R: Geselligkeits -, Trink -, Moral - Lied
M: 4/4
L: 1/8
K: C
 | G,4G,2C2 | B,6
C,E, | G,2G,G,G,2E,G, | C2D2E2
C,E, | G,2G,2G,2E,G, | C2D2E2
C2 | D2D2D2DD | D2EEF4 |
F4B,2D2 | C4z4

@@@ Tune index: 5867
